public/img/decorations/deco-blob-6.svg

<svg width="156" height="159" viewBox="0 0 156 159" fill="none" xmlns="http://www.w3.org/2000/svg">
<path d="M6.81116 60.239C7.31116 59.53 7.90115 58.866 8.29715 58.102C9.43415 55.902 10.3812 53.598 11.6092 51.453C13.1932 48.69 14.9122 45.997 16.6932 43.356C18.3842 40.847 20.0892 38.319 22.0472 36.02C25.1492 32.374 28.3672 28.812 31.7232 25.398C34.7972 22.272 38.0242 19.28 41.3582 16.433C43.7172 14.419 46.3642 12.738 48.8912 10.924C49.6492 10.38 50.4442 9.88499 51.1212 9.20899C48.9962 9.30999 47.5602 10.816 45.6132 11.487C46.3102 10.867 46.9252 10.1 47.7182 9.65199C53.0772 6.62599 58.4682 3.65297 64.3722 1.78297C64.6632 1.69097 64.9792 1.68298 65.3472 1.78398C61.4882 4.32098 56.8802 5.36497 52.4762 8.12397C53.4332 8.24397 53.8862 8.44497 54.2032 8.31397C55.2362 7.89097 56.2172 7.34298 57.2212 6.84998C61.5302 4.73198 66.0322 3.12597 70.5492 1.51597C75.3952 -0.21203 80.2012 -0.0660178 85.1602 0.659982C90.6312 1.46198 95.9592 2.81399 101.281 4.24699C104.906 5.22299 108.551 6.12599 112.158 7.16099C119.318 9.21199 125.765 12.666 131.603 17.269C133.171 18.506 134.644 19.869 136.234 21.079C139.023 23.201 141.045 25.948 142.882 28.872C143.304 29.543 143.841 30.143 144.345 30.761C146.118 32.939 147.763 35.196 148.761 37.853C150.111 41.439 151.693 44.959 152.738 48.632C154.287 54.083 155.381 59.643 155.406 65.374C155.429 70.735 155.285 76.08 154.351 81.364C153.31 87.28 151.794 93.055 149.023 98.452C146.984 102.422 145.482 106.722 143.068 110.435C138.359 117.674 132.839 124.309 126.634 130.373C122.089 134.814 117.114 138.648 111.763 142.037C109.872 143.234 107.956 144.412 106.181 145.769C101.13 149.627 95.3472 151.865 89.3352 153.644C87.6492 154.143 85.9952 154.743 84.3272 155.294C80.0542 156.71 75.6202 157.37 71.1822 157.952C68.4962 158.305 65.7742 158.411 63.0652 158.568C61.8111 158.64 60.5692 158.815 59.3172 158.163C58.7452 157.863 57.8312 158.217 56.9132 158.286C56.9032 157.451 57.0182 156.724 56.8522 156.069C56.6962 155.451 56.2432 154.909 55.9202 154.333C55.7602 154.427 55.6022 154.522 55.4432 154.616C55.6312 154.897 55.8812 155.155 55.9942 155.462C56.6292 157.196 55.7071 158.462 53.9202 158.04C51.1252 157.38 48.3652 156.538 45.6392 155.631C38.8642 153.374 32.9892 149.534 27.6022 144.944C23.8932 141.784 20.2392 138.51 17.3172 134.581C14.7902 131.185 12.4282 127.657 10.1592 124.083C8.62215 121.661 7.25515 119.114 6.01315 116.527C3.74915 111.816 2.49715 106.763 1.40215 101.681C0.914148 99.42 0.586152 97.123 0.256152 94.834C-0.335848 90.729 0.344149 86.719 1.26215 82.731C1.88915 80.005 2.38715 77.247 3.09015 74.541C4.13315 70.524 5.31716 66.544 6.41216 62.54C6.61716 61.786 6.68315 60.994 6.81415 60.22L6.81116 60.239ZM53.1272 59.27C53.1371 58.631 53.2292 58.354 53.1292 58.196C52.0742 56.511 51.9511 54.618 51.6702 52.711C51.1842 49.408 50.4282 46.143 49.7562 42.868C49.4862 41.549 49.1742 40.236 48.8182 38.938C48.6722 38.405 48.3592 37.917 47.9432 37.025C47.5972 37.766 47.4332 38.024 47.3512 38.305C46.8142 40.154 47.5872 41.872 47.9332 43.626C48.2551 45.262 48.8242 46.862 49.0172 48.51C49.4612 52.297 50.6861 55.757 53.1272 59.27ZM41.8812 37.513C41.3242 35.125 40.8502 32.713 40.1802 30.357C39.7642 28.899 38.9572 27.64 36.9772 27.715C37.3772 28.959 37.8622 30.049 38.0592 31.188C38.2742 32.433 38.1762 33.729 38.2992 34.995C38.4062 36.082 38.6332 37.157 38.9042 38.838C39.7622 37.256 40.5662 36.609 41.8812 37.513ZM94.7522 133.431C93.7322 132.085 92.1702 131.551 90.7132 131.127C89.8932 130.889 88.9552 131.037 88.0222 130.67C86.6612 130.133 85.1432 129.984 83.6861 129.713C83.5241 129.682 83.3111 129.92 83.1242 130.033C83.9382 131.465 83.9442 131.449 85.3372 131.939C87.7841 132.8 90.2222 133.685 92.7652 134.596C93.3121 134.274 94.0042 133.869 94.7522 133.431ZM32.2682 58.123C32.1082 58.191 31.9462 58.26 31.7862 58.328C32.1002 59.032 32.4152 59.737 32.7272 60.441C32.8702 60.381 33.0122 60.321 33.1532 60.26C32.8572 59.548 32.5622 58.835 32.2682 58.123Z" fill="black"/>
</svg>

<svg width="156" height="159" fill="none" xmlns="http://www.w3.org/2000/svg"><path d="M6.811 60.239c.5-.709 1.09-1.373 1.486-2.137 1.137-2.2 2.084-4.504 3.312-6.649 1.584-2.763 3.303-5.456 5.084-8.097 1.691-2.509 3.396-5.037 5.354-7.336 3.102-3.646 6.32-7.208 9.676-10.622a151.46 151.46 0 019.635-8.965c2.36-2.014 5.006-3.695 7.533-5.509.758-.544 1.553-1.039 2.23-1.715-2.125.101-3.56 1.607-5.508 2.278.697-.62 1.312-1.387 2.105-1.835 5.36-3.026 10.75-5.999 16.654-7.869.291-.092.607-.1.975.001-3.859 2.537-8.467 3.581-12.87 6.34.956.12 1.41.321 1.726.19 1.033-.423 2.014-.971 3.018-1.464 4.31-2.118 8.811-3.724 13.328-5.334C75.395-.212 80.201-.066 85.16.66c5.471.802 10.8 2.154 16.121 3.587 3.625.976 7.27 1.879 10.877 2.914 7.16 2.051 13.607 5.505 19.445 10.108 1.568 1.237 3.041 2.6 4.631 3.81 2.789 2.122 4.811 4.869 6.648 7.793.422.671.959 1.271 1.463 1.889 1.773 2.178 3.418 4.435 4.416 7.092 1.35 3.586 2.932 7.106 3.977 10.779 1.549 5.451 2.643 11.011 2.668 16.742.023 5.361-.121 10.706-1.055 15.99-1.041 5.916-2.557 11.691-5.328 17.088-2.039 3.97-3.541 8.27-5.955 11.983-4.709 7.239-10.229 13.874-16.434 19.938-4.545 4.441-9.52 8.275-14.871 11.664-1.891 1.197-3.807 2.375-5.582 3.732-5.051 3.858-10.834 6.096-16.846 7.875-1.686.499-3.34 1.099-5.008 1.65-4.273 1.416-8.707 2.076-13.145 2.658-2.686.353-5.408.459-8.117.616-1.254.072-2.496.247-3.748-.405-.572-.3-1.486.054-2.404.123-.01-.835.105-1.562-.06-2.217-.157-.618-.61-1.16-.933-1.736l-.477.283c.188.281.438.539.551.846.635 1.734-.287 3-2.074 2.578-2.795-.66-5.555-1.502-8.28-2.409-6.776-2.257-12.65-6.097-18.038-10.687-3.709-3.16-7.363-6.434-10.285-10.363-2.527-3.396-4.889-6.924-7.158-10.498-1.537-2.422-2.904-4.969-4.146-7.556-2.264-4.711-3.516-9.764-4.61-14.846-.49-2.261-.818-4.558-1.148-6.847-.592-4.105.088-8.115 1.006-12.103.627-2.726 1.125-5.484 1.828-8.19 1.043-4.017 2.227-7.997 3.322-12.001.205-.754.271-1.546.402-2.32l-.003.019zm46.316-.969c.01-.639.102-.916.002-1.074-1.055-1.685-1.178-3.578-1.459-5.485-.486-3.303-1.242-6.568-1.914-9.843a61.486 61.486 0 00-.938-3.93c-.146-.533-.459-1.021-.875-1.913-.346.741-.51.999-.592 1.28-.537 1.849.236 3.567.582 5.321.322 1.636.891 3.236 1.084 4.884.444 3.787 1.67 7.247 4.11 10.76zM41.881 37.513c-.557-2.388-1.03-4.8-1.7-7.156-.417-1.458-1.224-2.717-3.204-2.642.4 1.244.885 2.334 1.082 3.473.215 1.245.117 2.541.24 3.807.107 1.087.334 2.162.605 3.843.858-1.582 1.662-2.229 2.977-1.325zm52.871 95.918c-1.02-1.346-2.582-1.88-4.039-2.304-.82-.238-1.758-.09-2.69-.457-1.362-.537-2.88-.686-4.337-.957-.162-.031-.375.207-.562.32.814 1.432.82 1.416 2.213 1.906 2.447.861 4.885 1.746 7.428 2.657.547-.322 1.24-.727 1.987-1.165zM32.268 58.123l-.482.205c.314.704.63 1.409.941 2.113.143-.06.285-.12.426-.181-.296-.712-.59-1.425-.885-2.137z" fill="#000"/></svg>
